X:1
T:Christmas Day in the Morning
T:Paddy Haverty's
T:Munster Buttermilk
R:jig
S:Paddy Haverty
Z:Paddy Haverty is a fiddler from Killimor, Co. Galway.
Z:He called it Munster Buttermilk, but I have a different tune by that name, so
Z:I call it after him.
Z:John Walsh Dec 99
S:John Walsh <walsh:math.ubc.ca> irtrad-l 2001-12-7
M:6/8
K:G
|g2g age|d2 B BAB|d2 B BAB|dBA GBd|\
g2g age|d2 B BAB|dBA GAB|ABA G3:|
|d2 e g2 a|b2 b bag|a2a age|g2 g age|\
d2 e g2a|b2 b bag|age deg|aba g3:|
